packages/astro-components-stencil/src/icons/bug-report.svg

<svg width="24" height="24" viewBox="0 0 24 24" fill="none" xmlns="http://www.w3.org/2000/svg">
<path fill-rule="evenodd" clip-rule="evenodd" d="M19 7.99997H17.19C16.74 7.21997 16.12 6.54997 15.37 6.03997L16.3 5.10997C16.69 4.71997 16.69 4.08997 16.3 3.69997C15.91 3.30997 15.28 3.30997 14.89 3.69997L13.42 5.16997C12.96 5.05997 12.49 4.99997 12 4.99997C11.51 4.99997 11.04 5.05997 10.59 5.16997L9.11 3.69997C8.72 3.30997 8.09 3.30997 7.7 3.69997C7.31 4.08997 7.31 4.71997 7.7 5.10997L8.62 6.03997C7.88 6.54997 7.26 7.21997 6.81 7.99997H5C4.45 7.99997 4 8.44997 4 8.99997C4 9.54997 4.45 9.99997 5 9.99997H6.09C6.04 10.33 6 10.66 6 11V12H5C4.45 12 4 12.45 4 13C4 13.55 4.45 14 5 14H6V15C6 15.34 6.04 15.67 6.09 16H5C4.45 16 4 16.45 4 17C4 17.55 4.45 18 5 18H6.81C7.85 19.79 9.78 21 12 21C14.22 21 16.15 19.79 17.19 18H19C19.55 18 20 17.55 20 17C20 16.45 19.55 16 19 16H17.91C17.96 15.67 18 15.34 18 15V14H19C19.55 14 20 13.55 20 13C20 12.45 19.55 12 19 12H18V11C18 10.66 17.96 10.33 17.91 9.99997H19C19.55 9.99997 20 9.54997 20 8.99997C20 8.44997 19.55 7.99997 19 7.99997ZM11 16C10.45 16 10 15.55 10 15C10 14.45 10.45 14 11 14H13C13.55 14 14 14.45 14 15C14 15.55 13.55 16 13 16H11ZM11 12H13C13.55 12 14 11.55 14 11C14 10.45 13.55 9.99997 13 9.99997H11C10.45 9.99997 10 10.45 10 11C10 11.55 10.45 12 11 12Z" fill="black"/>
</svg>

<svg xmlns="http://www.w3.org/2000/svg" viewBox="0 0 24 24"><g xmlns="http://www.w3.org/2000/svg" id="bug-report" fill-rule="nonzero">
            <path d="M19 8h-1.81a5.985 5.985 0 00-1.82-1.96l.93-.93a.996.996 0 10-1.41-1.41l-1.47 1.47C12.96 5.06 12.49 5 12 5c-.49 0-.96.06-1.41.17L9.11 3.7A.996.996 0 107.7 5.11l.92.93C7.88 6.55 7.26 7.22 6.81 8H5c-.55 0-1 .45-1 1s.45 1 1 1h1.09c-.05.33-.09.66-.09 1v1H5c-.55 0-1 .45-1 1s.45 1 1 1h1v1c0 .34.04.67.09 1H5c-.55 0-1 .45-1 1s.45 1 1 1h1.81c1.04 1.79 2.97 3 5.19 3s4.15-1.21 5.19-3H19c.55 0 1-.45 1-1s-.45-1-1-1h-1.09c.05-.33.09-.66.09-1v-1h1c.55 0 1-.45 1-1s-.45-1-1-1h-1v-1c0-.34-.04-.67-.09-1H19c.55 0 1-.45 1-1s-.45-1-1-1zm-6 8h-2c-.55 0-1-.45-1-1s.45-1 1-1h2c.55 0 1 .45 1 1s-.45 1-1 1zm0-4h-2c-.55 0-1-.45-1-1s.45-1 1-1h2c.55 0 1 .45 1 1s-.45 1-1 1z"/>
        </g></svg>
